!! George Gerswhin, "Nashville Nightingale" from
!! "Bumper Book of George Gerswhin,"
!! London: Chappell Music Ltd., 1987; pp.282-285
**kern
*M2/2
*MM[Moderato]
=1
4cc
8cc
8b-
8a
8b-
8a
8g
=2
8f
4f
[8f
8f]
8a
4cc
=3
4a-
4a-
8a-
4g
[8f
=4
2.f]
8ee-
8dd
=5
4cc
8cc
8b-
8a
8b-
8a
8g
=6
8f
4f
[8f
8f]
8a
4cc
=7
4a-
4a-
8a-
4g
[8f
=8
2.f]
8f
8g
=9
4an
4a
8a
8a
8a
8a
!! page 283
=10
4a
4a
8a
8a
8a
8a
=11
4a
4a
4g
4g
=12
2.e
8g
8a
=13
4cc
4cc
8cc
8cc
8cc
8cc
=14
4cc
4cc
8cc
8cc
8cc
8cc
=15
4cc
4cc
4bn
4b
=16
2.cc
8ee-
8dd
=17
4cc
8cc
8b-
8a
8b-
8a
8g
=18
8f
4f
[8f
8f]
8a
4cc
=19
4a-
4a-
8a-
4g
[8f
=20
2.f]
8e
8f
=21
4g
4g
8g
4.cc
=22
1a
=23
4bn
8b
8g
4a
4g
=24
2.cc
4r
!! page 284
!! Refrain
=25
4f
4a
8cc
4dd
[8dd
=26
2dd]
8dd
8cc
8a
8f
=27
2a-
8g
4.f
=28
2a-
8g
4.f
=29
4c
4e
8g
4an
[8a
=30
2a]
8cc
8a
8g
8c
=31
8.f
16ee-
8.dd
16cc
8.g#
16a
8.f
16ee-
=32
8.dd
16cc
8.g#
16a
4f
4r
=33
4f
4a
8cc
4dd
[8dd
=34
2dd]
8dd
8cc
8a
8f
=35
2a-
8g
4.f
=36
2a-
8g
4.f
=37
4c
4e
8g
4an
[8a
=38
2a]
8cc
8a
8g
8c
=39
1f
=40
4r
4a
4bn
4cc
!! page 295
=41
8r
8cc
8cc#
8a
8r
8b#
8cc#
8ee
=42
8r
8b#
8cc#
8a
8r
8a
8bn
8a
=43
4dd
4dd
4dd
4dd
=44
8dd
8cc
8a
8f#
8e
4.d
=45
8r
8a#
8bn
8g
8r
8a#
8b
8dd
=46
8r
8a#
8bn
8g
8r
8g
8an
8g
=47
4cc
4cc
4cc
4cc
=48
8cc
8b-
8g
8e
8d
4.c
=49
4f
4a
8cc
4dd
[8dd
=50
2dd]
8dd
8cc
8a
8f
=51
2a-
8g
4.f
=52
2a-
8g
4.f
=53
8.cc
16cc
8.dd
16cc
4dd
4cc
=54
4dd
4cc
8g#
4.a
!! First ending.
=55
[1f
=56
4f]
4r
2r
!! page 284
!! Refrain
=25
4f
4a
8cc
4dd
[8dd
=26
2dd]
8dd
8cc
8a
8f
=27
2a-
8g
4.f
=28
2a-
8g
4.f
=29
4c
4e
8g
4an
[8a
=30
2a]
8cc
8a
8g
8c
=31
8.f
16ee-
8.dd
16cc
8.g#
16a
8.f
16ee-
=32
8.dd
16cc
8.g#
16a
4f
4r
=33
4f
4a
8cc
4dd
[8dd
=34
2dd]
8dd
8cc
8a
8f
=35
2a-
8g
4.f
=36
2a-
8g
4.f
=37
4c
4e
8g
4an
[8a
=38
2a]
8cc
8a
8g
8c
=39
1f
=40
4r
4a
4bn
4cc
!! page 295
=41
8r
8cc
8cc#
8a
8r
8b#
8cc#
8ee
=42
8r
8b#
8cc#
8a
8r
8a
8bn
8a
=43
4dd
4dd
4dd
4dd
=44
8dd
8cc
8a
8f#
8e
4.d
=45
8r
8a#
8bn
8g
8r
8a#
8b
8dd
=46
8r
8a#
8bn
8g
8r
8g
8an
8g
=47
4cc
4cc
4cc
4cc
=48
8cc
8b-
8g
8e
8d
4.c
=49
4f
4a
8cc
4dd
[8dd
=50
2dd]
8dd
8cc
8a
8f
=51
2a-
8g
4.f
=52
2a-
8g
4.f
=53
8.cc
16cc
8.dd
16cc
4dd
4cc
=54
4dd
4cc
8g#
4.a
!! Second ending.
=55
[1f
=56
4f]
4r
2r
====
*-
